X:1
%
T:Oh Boy Cory McLory
M:6/8
L:1/8
R:Air
S:Anonymous 1862 American music manuscript collection (p. 14)
N: https://archive.org/stream/MerryMen/MUMSS-00079#page/n0/mode/2up
Z:AK/Fiddler’s Companion
K:A
e3 cde|(A3 A2)B|c2c cBA|(B3 B2)B|
c2c d2d|e2e f2f|e2c BAB|(A3 A2)z:|
|:a2z e2z|cde A2B|c2c cBA|(B3 B2)B|
c2c d2d|e2e f2f|e2c BAB|(A3 A2)z:|]

